X: 200
T:Captain Campbell
M:4/4
R:Strathspey
F:http://blackrosetheband.googlepages.com/ABCTUNES.ABC May 2009
K:Am
A2 A>B c>A B>G|D<G G>A B>d c/2B/A/2G/2|E<A A>B c>B ce|d<B g>B A2 A>G|
E<A A>B c>A B>G|D<G G>A B>d c/2B/2G|E<A A>B c>B ce|d<B g>B A2 A2||
e<a a>g e>d c<e|d>e g>e d/2c/2B/2A/2 G>B|A<a a>g e>d c>e|d<B g>B A2 AB|
A<a a>g e>d c<e|d>e g>e d/2c/2B/2A/2 G>B|c<A d>B e>d c<e|d<B g>B A2 A2||

